X:1
T:Miss Staff. JBAT8.044
T:Miss Staff. JBAT8.044
T:Mrs Taff,aka. JBAT8.044 Banks (of the River). JBAT8.044, The
T:Parazotti
C:Parazotti
L:1/8
Q:1/2=80
M:2/2
K:Eb
V:1 treble 
V:1
 C2 | E2 G2 G2 (3(BGE) | D2 F2 F2 (3(AFD) | C2 c2 cdec | BcBG AGFE | G,2 B2 B2 c2 | %6
 A,2 c2 c2 d"^?"e | DEFG AcBE | F2 E2 E2 :| (3(gag) | g2 E2 E2 (3(gbg) | f2 D2 D2 (3(fgf) | %12
 e2 c2 c2 (de) | fedc B2 D2 | (DB)(fB)"^NB" (DB)(fB) | (DB)(gB)"^NB" (DB)(gB) | B=AcB ecBA | %17
 B=ABc B_AGF | (EG).B.E (eG).F.E | (DF).B.F (dF).E.D | (CE).A.E (cB).A.G | AGFE DCB,A, | %22
 (G,E)(BE) (G,E)(BE) | (A,E)(cE) (A,E)(cE) | DEFG AcBE | F2 E2 E2!D.C.! |] %26

